X:1
T:A Song from Solomon
T:A Song from Solomon
T:Daniel O. Teasley
T:D. O. T.
T:PUBLIC DOMAIN
T:PUBLIC DOMAIN
C:Daniel O. Teasley
Z:D. O. T.
Z:PUBLIC DOMAIN
%%score ( 1 2 ) ( 3 4 )
L:1/8
Q:1/4=90
M:4/4
K:F
V:1 treble nm="Soprano"
V:2 treble 
V:3 bass nm="Bass"
V:4 bass 
V:1
 [FA]3/2 [FA]/ [FA]3/2 [FA]/ [FA]3/2 [CF]/ [Fd]3/2 [Fc]/ | ([Fc]3 [FB]) [FA]4 | %2
w: 1.~Who is this that com- eth from the|wil- der- ness,|
w: 2.~Who is she that look- eth as the|morn- _ ing,|
w: 3.~Who is she that stand- eth on the|moun- _ tain,|
w: 4.~Who is she, the fair- est of ten|thou- _ sand,|
 [EB]3/2 [EB]/ [EB]3/2 [FA]/ [EG]3/2 [CE]/ [B,D]3/2 C/ | [CA]6 z2 | %4
w: Lean- ing on her well- be- lov- ed’s|arm,|
w: Clear- er than the moon’s ce- les- tial|light,|
w: Sing- ing to our hearts a song of|joy,|
w: Shin- ing with the bright- ness of the|sun,|
 [FA]3/2 [FA]/ [FA]3/2 [FA]/ [FA]3/2 [CF]/ [Ff]3/2 [Fe]/ | [Fd]4 [FB]4 | %6
w: Sweet- er than the fra- grant rose of|Shar- on,|
w: Bright- er than the sun’s ef- ful- gent|glo- ry,|
w: Fair- er than the li- lies of the|val- ley,|
w: Queen of love, and choice one of her|moth- er?|
 [Ac]3/2 [Ac]/ [Ac]3/2 [FA]/ (G3/2 B/) [FA]3/2 [EG]/ | F6 z2 || %8
w: Win- ning all our hearts * by her|charm?|
w: Ban- ish- ing the dark- _ ness of|night?|
w: Pure as gold re- fined * from al-|loy?|
w: She, my un- de- filed, * is but|one.|
"^Refrain" [Fd]3/2 [F^c]/ [Fd]3/2 [Fe]/ [Ff]3/2 [Fe]/ [Fe]3/2 [Fd]/ | [Fd]4 [Fc]4 | %10
w: Bless- ed bride of Christ, we now a-|dore thee;|
w: ||
w: ||
w: ||
 [EB]3/2 [EB]/ [EB]3/2 [FA]/ [EG]3/2 [CE]/ [B,D]3/2 C/ | [CA]6 z2 | %12
w: Treas- ure of our hearts, we hymn thy|praise;|
w: ||
w: ||
w: ||
 [FA]3/2 [FA]/ [FA]3/2 [FA]/ [FA]3/2 [CF]/ [Ff]3/2 [Fe]/ | [Fd]4 [FB]4 | %14
w: Church of God, we love thee and no|oth- er;|
w: ||
w: ||
w: ||
"^accel." [Ac]3/2 [Ac]/ [Ac]3/2 [FA]/ [FG]3/2 [FB]/ [FA]3/2 [EG]/ | F6 z2 |] %16
w: In thy courts we’ll wor- ship all our|days.|
w: ||
w: ||
w: ||
V:2
 x8 | x8 | z4 z2 z3/2 C/ | x8 | x8 | x8 | z4 F2 z2 | F6 z2 || x8 | x8 | z4 z2 z3/2 C/ | x8 | x8 | %13
 x8 | x8 | F6 z2 |] %16
V:3
 [F,C]3/2 [F,C]/ [F,C]3/2 [F,C]/ [F,C]3/2 [F,A,]/ [F,B,]3/2 [F,A,]/ | ([F,A,]3 [F,D]) [F,C]4 | %2
 [C,C]3/2 [C,C]/ [C,C]3/2 [C,C]/ [C,C]3/2 [C,G,]/ [C,G,]3/2 [E,G,]/ | F,6 z2 | %4
 [F,C]3/2 [F,C]/ [F,C]3/2 [F,C]/ [F,C]3/2 [F,A,]/ [F,A,]3/2 [A,C]/ | B,4 [B,D]4 | %6
 [F,C]3/2 [F,C]/ [F,C]3/2 [F,C]/ [B,,D]2 [C,C]3/2 [C,B,]/ | [F,A,]6 z2 || %8
 [B,,B,]3/2 [B,,A,]/ [B,,B,]3/2 [B,,C]/ [B,,D]3/2 [B,,C]/ [B,,C]3/2 [B,,B,]/ | [F,B,]4 [F,A,]4 | %10
 [C,C]3/2 [C,C]/ [C,C]3/2 [C,C]/ [C,C]3/2 [C,G,]/ [C,G,]3/2 [E,G,]/ | F,6 z2 | %12
 [F,C]3/2 [F,C]/ [F,C]3/2 [F,C]/ [F,C]3/2 [F,A,]/ [F,A,]3/2 [A,C]/ | B,4 [B,D]4 | %14
"^accel." [F,CF]3/2 [F,CF]/ [F,CF]3/2 [F,C]/ [B,,D]3/2 [B,,D]/ [C,C]3/2 [C,B,]/ | [F,A,]6 z2 |] %16
V:4
 x8 | x8 | x8 | F,6 z2 | x8 | B,4 z4 | x8 | x8 || x8 | x8 | x8 | F,6 z2 | x8 | B,4 z4 | x8 | x8 |] %16

